website/public/Images/logos/mayadata_logo.svg

<svg width="278" height="60" viewBox="0 0 278 60" fill="none" xmlns="http://www.w3.org/2000/svg">
<g clip-path="url(#clip0)">
<path d="M206.725 18.489C205.249 17.152 203.478 16.1536 201.46 15.5203C199.448 14.889 196.37 14.582 192.049 14.582H185.021V44.1703H195.234C199.269 44.1703 202.406 43.5329 204.558 42.2765C206.712 41.018 208.395 39.2486 209.561 37.0203C210.716 34.8154 211.301 32.4361 211.301 29.9508C211.301 27.489 210.907 25.28 210.129 23.3842C209.345 21.473 208.199 19.826 206.725 18.489ZM206.247 29.6439C206.247 31.3174 205.967 32.8053 205.414 34.0679C204.869 35.3141 204.066 36.3819 203.026 37.2426C201.992 38.0982 200.757 38.6846 199.357 38.9865C197.886 39.3037 195.467 39.4648 192.168 39.4648H189.956V19.364H190.894C194.095 19.364 196.576 19.52 198.268 19.829C199.886 20.1238 201.311 20.7173 202.505 21.5954C203.689 22.4663 204.617 23.6136 205.262 25.0047C205.915 26.4151 206.247 27.9764 206.247 29.6439Z" fill="#3B4473"/>
<path d="M249.378 14.5391H244.645V22.0179H241.055V26.213H244.645V39.8924C244.645 41.3391 245.016 42.4357 245.747 43.1537C246.482 43.8766 247.582 44.2425 249.017 44.2425C249.703 44.2425 250.657 44.1427 251.934 43.9392L252.587 43.8345V39.8386H249.972C249.686 39.8386 249.501 39.8249 249.395 39.817C249.386 39.7417 249.378 39.6361 249.378 39.4884V26.213H253.504V22.0179H249.378V14.5391Z" fill="#3B4473"/>
<path d="M98.5361 14.5703L87.6201 35.8877L76.6279 14.5703H74.573L70.1875 44.2437H75.1573L77.611 26.8291L86.5968 44.2437H88.6497L97.5177 26.9866L99.969 44.2437H105.019L100.592 14.5703H98.5361Z" fill="#3B4473"/>
<path d="M125.653 24.3858C123.742 22.7795 121.48 21.9668 118.907 21.9668C115.722 21.9668 112.986 23.0655 110.773 25.2312C108.564 27.3931 107.443 30.0271 107.443 33.0593C107.443 36.0896 108.556 38.7332 110.75 40.9181C112.951 43.1116 115.639 44.2238 118.739 44.2238C121.281 44.2238 123.6 43.3755 125.653 41.6982V44.2435L130.221 44.2238V22.019H125.653V24.3858ZM123.81 28.2788C125.151 29.601 125.803 31.1997 125.803 33.1668C125.803 35.131 125.141 36.7219 123.779 38.0308C122.418 39.3406 120.843 39.9768 118.963 39.9768C117.065 39.9768 115.481 39.3147 114.121 37.9511C112.752 36.5809 112.087 35.0101 112.087 33.1495C112.087 31.286 112.741 29.7133 114.088 28.3421C115.423 26.9834 117.012 26.3222 118.945 26.3222C120.883 26.3222 122.475 26.9623 123.81 28.2788Z" fill="#3B4473"/>
<path d="M176.304 24.3858C174.392 22.7795 172.13 21.9668 169.558 21.9668C166.373 21.9668 163.636 23.0655 161.424 25.2312C159.214 27.3931 158.094 30.0271 158.094 33.0593C158.094 36.0896 159.206 38.7332 161.4 40.9181C163.601 43.1116 166.289 44.2238 169.389 44.2238C171.931 44.2238 174.25 43.3755 176.304 41.6982V44.2435L180.872 44.2238V22.019H176.304V24.3858ZM174.461 28.2788C175.802 29.601 176.454 31.1997 176.454 33.1668C176.454 35.131 175.792 36.7219 174.43 38.0308C173.068 39.3406 171.493 39.9768 169.614 39.9768C167.716 39.9768 166.132 39.3147 164.772 37.9511C163.403 36.5809 162.737 35.0101 162.737 33.1495C162.737 31.286 163.392 29.7133 164.739 28.3421C166.073 26.9834 167.662 26.3222 169.595 26.3222C171.533 26.3222 173.125 26.9623 174.461 28.2788Z" fill="#3B4473"/>
<path d="M232.556 24.3858C230.644 22.7795 228.382 21.9668 225.81 21.9668C222.625 21.9668 219.888 23.0655 217.676 25.2312C215.466 27.3931 214.346 30.0271 214.346 33.0593C214.346 36.0896 215.458 38.7332 217.652 40.9181C219.853 43.1116 222.541 44.2238 225.641 44.2238C228.183 44.2238 230.502 43.3755 232.556 41.6982V44.2435L237.124 44.2238V22.019H232.556V24.3858ZM230.713 28.2788C232.054 29.601 232.706 31.1997 232.706 33.1668C232.706 35.131 232.044 36.7219 230.682 38.0308C229.32 39.3406 227.745 39.9768 225.866 39.9768C223.968 39.9768 222.384 39.3147 221.023 37.9511C219.654 36.5809 218.989 35.0101 218.989 33.1495C218.989 31.286 219.644 29.7133 220.991 28.3421C222.325 26.9834 223.914 26.3222 225.847 26.3222C227.785 26.3222 229.377 26.9623 230.713 28.2788Z" fill="#3B4473"/>
<path d="M273.433 24.3858C271.521 22.7795 269.259 21.9668 266.687 21.9668C263.502 21.9668 260.765 23.0655 258.553 25.2312C256.343 27.3931 255.223 30.0271 255.223 33.0593C255.223 36.0896 256.335 38.7332 258.529 40.9181C260.73 43.1116 263.418 44.2238 266.518 44.2238C269.06 44.2238 271.379 43.3755 273.433 41.6982V44.2435L278.001 44.2238V22.019H273.433V24.3858ZM271.59 28.2788C272.931 29.601 273.583 31.1997 273.583 33.1668C273.583 35.131 272.921 36.7219 271.559 38.0308C270.197 39.3406 268.622 39.9768 266.743 39.9768C264.845 39.9768 263.261 39.3147 261.9 37.9511C260.531 36.5809 259.866 35.0101 259.866 33.1495C259.866 31.286 260.521 29.7133 261.868 28.3421C263.202 26.9834 264.791 26.3222 266.724 26.3222C268.662 26.3222 270.254 26.9623 271.59 28.2788Z" fill="#3B4473"/>
<path d="M145.579 36.2164L139.038 22.1992H133.945L143.006 41.8264L138.566 51.5824H143.658L157.035 22.1992H151.901L145.579 36.2164Z" fill="#3B4473"/>
<path d="M10.6914 21.5641V49.9302C10.6914 50.6528 11.0931 51.2095 11.7448 51.5697L26.1528 59.6961C26.8011 60.0544 27.5986 60.1225 28.2469 59.7642L42.6521 51.5944C43.3055 51.2332 43.7083 50.6548 43.7083 49.9302V21.5391L27.1999 30.9859L10.6914 21.5641Z" fill="#3B4473"/>
<path d="M5.81214 46.9618V19.5794C5.81214 19.1609 5.92203 18.6321 6.7733 18.2271L26.6006 6.88292C26.9724 6.67929 27.4284 6.67929 27.8002 6.88293L47.9979 18.437C48.3761 18.6442 48.5959 18.7799 48.5884 19.2564L48.5884 46.9618C48.5884 47.5365 49.2483 47.8072 49.7711 47.5286L53.831 45.2107C54.2163 45.0055 54.4006 44.6962 54.4006 44.2728V15.9298C54.4006 15.4304 54.2269 15.2594 53.8535 15.051L27.8071 0.157563C27.4318 -0.0519819 26.9686 -0.0525559 26.5928 0.156058L0.595865 15.0361C0.220996 15.2441 0 15.599 0 16.0152V44.2728C0 44.6811 0.179061 44.9858 0.542904 45.1966L4.64265 47.5364C5.16581 47.8394 5.81214 47.549 5.81214 46.9618Z" fill="#3B4473"/>
<path d="M38.9661 18.906L27.2008 12.1914L15.4355 18.906L27.2008 25.6206L38.9661 18.906Z" fill="#3B4473"/>
</g>
<defs>
<clipPath id="clip0">
<rect width="278" height="60" fill="white"/>
</clipPath>
</defs>
</svg>

<svg xmlns="http://www.w3.org/2000/svg" xmlns:xlink="http://www.w3.org/1999/xlink" width="278" height="60" fill="none" xmlns:v="https://vecta.io/nano"><g clip-path="url(#A)" fill="#3b4473"><path d="M206.725 18.489c-1.476-1.337-3.247-2.335-5.265-2.969-2.012-.631-5.09-.938-9.411-.938h-7.028V44.17h10.213c4.035 0 7.172-.637 9.324-1.894s3.837-3.028 5.003-5.256a15.09 15.09 0 0 0 1.74-7.069c0-2.462-.394-4.671-1.172-6.567-.784-1.911-1.93-3.558-3.404-4.895zm-.478 11.155c0 1.674-.28 3.161-.833 4.424-.545 1.246-1.348 2.314-2.388 3.175-1.034.856-2.269 1.442-3.669 1.744-1.471.317-3.89.478-7.189.478h-2.212V19.364h.938c3.201 0 5.682.156 7.374.465 1.618.295 3.043.888 4.237 1.766 1.184.871 2.112 2.018 2.757 3.409.653 1.41.985 2.972.985 4.639zm43.131-15.105h-4.733v7.479h-3.59v4.195h3.59v13.679c0 1.447.371 2.543 1.102 3.261s1.835 1.089 3.27 1.089c.686 0 1.64-.1 2.917-.303l.653-.105v-3.996h-2.615c-.286 0-.471-.014-.577-.022a2.76 2.76 0 0 1-.017-.329V26.213h4.126v-4.195h-4.126v-7.479zm-150.842.031L87.62 35.888 76.628 14.57h-2.055l-4.385 29.673h4.97l2.454-17.415 8.986 17.415h2.053l8.868-17.257 2.451 17.257h5.05l-4.427-29.673h-2.056zm27.117 9.816c-1.911-1.606-4.173-2.419-6.746-2.419-3.185 0-5.921 1.099-8.134 3.264s-3.33 4.796-3.33 7.828 1.113 5.674 3.307 7.859c2.201 2.194 4.889 3.306 7.989 3.306 2.542 0 4.861-.848 6.914-2.526v2.545l4.568-.02V22.019h-4.568v2.367zm-1.843 3.893c1.341 1.322 1.993 2.921 1.993 4.888s-.662 3.555-2.024 4.864-2.936 1.946-4.816 1.946c-1.898 0-3.482-.662-4.842-2.026-1.369-1.37-2.034-2.941-2.034-4.802s.654-3.436 2.001-4.807c1.335-1.359 2.924-2.02 4.857-2.02 1.938 0 3.53.64 4.865 1.957zm52.494-3.893c-1.912-1.606-4.174-2.419-6.746-2.419-3.185 0-5.922 1.099-8.134 3.264s-3.33 4.796-3.33 7.828 1.112 5.674 3.306 7.859c2.201 2.194 4.889 3.306 7.989 3.306 2.542 0 4.861-.848 6.915-2.526v2.545l4.568-.02V22.019h-4.568v2.367zm-1.843 3.893c1.341 1.322 1.993 2.921 1.993 4.888s-.662 3.555-2.024 4.864a6.65 6.65 0 0 1-4.816 1.946c-1.898 0-3.482-.662-4.842-2.026-1.369-1.37-2.035-2.941-2.035-4.802s.655-3.436 2.002-4.807c1.334-1.359 2.923-2.02 4.856-2.02s3.53.64 4.866 1.957z"/><use xlink:href="#B"/><path d="M273.433 24.386c-1.912-1.606-4.174-2.419-6.746-2.419-3.185 0-5.922 1.099-8.134 3.264s-3.33 4.796-3.33 7.828 1.112 5.674 3.306 7.859c2.201 2.194 4.889 3.306 7.989 3.306 2.542 0 4.861-.848 6.915-2.526v2.545l4.568-.02V22.019h-4.568v2.367zm-1.843 3.893c1.341 1.322 1.993 2.921 1.993 4.888s-.662 3.555-2.024 4.864a6.65 6.65 0 0 1-4.816 1.946c-1.898 0-3.482-.662-4.843-2.026-1.369-1.37-2.034-2.941-2.034-4.802s.655-3.436 2.002-4.807c1.334-1.359 2.923-2.02 4.856-2.02s3.53.64 4.866 1.957zm-126.011 7.937l-6.541-14.017h-5.093l9.061 19.627-4.44 9.756h5.092l13.377-29.383h-5.134l-6.322 14.017zM10.691 21.564V49.93c0 .723.402 1.279 1.053 1.639l14.408 8.126c.648.358 1.446.426 2.094.068l14.405-8.17c.653-.361 1.056-.94 1.056-1.664v-28.39L27.2 30.986l-16.508-9.422zM5.812 46.962V19.579c0-.418.11-.947.961-1.352L26.601 6.883c.372-.204.828-.204 1.2 0l20.198 11.554c.378.207.598.343.59.819v27.705c0 .575.66.845 1.183.567l4.06-2.318c.385-.205.57-.515.57-.938V15.93c0-.499-.174-.67-.547-.879L27.807.158c-.375-.21-.838-.21-1.214-.002L.596 15.036c-.375.208-.596.563-.596.979v28.258a1 1 0 0 0 .543.924l4.1 2.34c.523.303 1.169.013 1.169-.575zm33.154-28.056l-11.765-6.715-11.765 6.715 11.765 6.715 11.765-6.715z"/></g><defs><clipPath id="A"><path fill="#fff" d="M0 0h278v60H0z"/></clipPath><path id="B" d="M232.556 24.386c-1.912-1.606-4.174-2.419-6.746-2.419-3.185 0-5.922 1.099-8.134 3.264s-3.33 4.796-3.33 7.828 1.112 5.674 3.306 7.859c2.201 2.194 4.889 3.306 7.989 3.306 2.542 0 4.861-.848 6.915-2.526v2.545l4.568-.02V22.019h-4.568v2.367zm-1.843 3.893c1.341 1.322 1.993 2.921 1.993 4.888s-.662 3.555-2.024 4.864-2.937 1.946-4.816 1.946c-1.898 0-3.482-.662-4.843-2.026-1.369-1.37-2.034-2.941-2.034-4.802s.655-3.436 2.002-4.807c1.334-1.359 2.923-2.02 4.856-2.02s3.53.64 4.866 1.957z"/></defs></svg>
